packages/react/src/components/base/Icon/assets/icon-file-video.svg

<svg width="24" height="24" viewBox="0 0 24 24" xmlns="http://www.w3.org/2000/svg" fill="currentColor"> <path d="M20.6709 7.45455L15.4209 2.20455C15.3164 2.10011 15.1923 2.0173 15.0557 1.96084C14.9191 1.90437 14.7728 1.87537 14.625 1.87549H5.625C5.12772 1.87549 4.65081 2.07303 4.29917 2.42466C3.94754 2.77629 3.75 3.25321 3.75 3.75049V10.1255C3.75 10.4239 3.86853 10.71 4.0795 10.921C4.29048 11.132 4.57663 11.2505 4.875 11.2505C5.17337 11.2505 5.45952 11.132 5.6705 10.921C5.88147 10.71 6 10.4239 6 10.1255V4.12549H13.125V8.62549C13.125 8.92386 13.2435 9.21001 13.4545 9.42098C13.6655 9.63196 13.9516 9.75049 14.25 9.75049H18.75V19.8755C18.4516 19.8755 18.1655 19.994 17.9545 20.205C17.7435 20.416 17.625 20.7021 17.625 21.0005C17.625 21.2989 17.7435 21.585 17.9545 21.796C18.1655 22.007 18.4516 22.1255 18.75 22.1255H19.125C19.6223 22.1255 20.0992 21.9279 20.4508 21.5763C20.8025 21.2247 21 20.7478 21 20.2505V8.25049C21.0001 8.10271 20.9711 7.95635 20.9147 7.81978C20.8582 7.68321 20.7754 7.55911 20.6709 7.45455ZM15.375 5.34424L17.5312 7.50049H15.375V5.34424ZM15.1959 13.2839C15.027 13.1844 14.8351 13.1308 14.6391 13.1283C14.443 13.1258 14.2498 13.1746 14.0784 13.2699L12.2344 14.2917C12.0937 13.9472 11.8536 13.6522 11.5448 13.4445C11.2359 13.2369 10.8722 13.1258 10.5 13.1255H4.875C4.37772 13.1255 3.90081 13.323 3.54917 13.6747C3.19754 14.0263 3 14.5032 3 15.0005V19.5005C3 19.9978 3.19754 20.4747 3.54917 20.8263C3.90081 21.1779 4.37772 21.3755 4.875 21.3755H10.5C10.8722 21.3752 11.2359 21.2641 11.5448 21.0564C11.8536 20.8487 12.0937 20.5538 12.2344 20.2092L14.0784 21.2339C14.2497 21.3291 14.4428 21.3779 14.6388 21.3755C14.8347 21.3731 15.0266 21.3196 15.1955 21.2203C15.3643 21.1209 15.5043 20.9792 15.6016 20.8091C15.6989 20.639 15.75 20.4464 15.75 20.2505V14.2505C15.75 14.0547 15.6989 13.8622 15.6017 13.6922C15.5045 13.5222 15.3647 13.3805 15.1959 13.2811V13.2839ZM10.125 19.1255H5.25V15.3755H10.125V19.1255ZM13.5 18.3389L12.375 17.7136V16.7874L13.5 16.1621V18.3389Z"/> </svg>

<svg viewBox="0 0 24 24" xmlns="http://www.w3.org/2000/svg" aria-hidden="true" fill="currentColor"><path d="m20.67 7.455-5.25-5.25a1.12 1.12 0 0 0-.795-.33h-9A1.875 1.875 0 0 0 3.75 3.75v6.376a1.125 1.125 0 0 0 2.25 0v-6h7.125v4.5A1.125 1.125 0 0 0 14.25 9.75h4.5v10.125a1.125 1.125 0 1 0 0 2.25h.375A1.875 1.875 0 0 0 21 20.25v-12a1.13 1.13 0 0 0-.33-.795m-5.295-2.11L17.531 7.5h-2.156zm-.18 7.939a1.13 1.13 0 0 0-1.117-.014l-1.844 1.022a1.88 1.88 0 0 0-1.734-1.166H4.875A1.875 1.875 0 0 0 3 15v4.5a1.875 1.875 0 0 0 1.875 1.874H10.5a1.875 1.875 0 0 0 1.734-1.166l1.844 1.025a1.125 1.125 0 0 0 1.672-.984v-6a1.13 1.13 0 0 0-.554-.969zm-5.07 5.841H5.25v-3.75h4.875zm3.375-.786-1.125-.625v-.927l1.125-.625z"/></svg>
